X: 1
T: Cluck Old Hen
R: barndance
S: https://thesession.org/tunes/10006
S: oldfarmersball.com
M: 4/4
L: 1/8
K: Ador
|: "A"e2ae "G"g2ag | "A"e2ae "G"d2dd | "A"e2ae "G"g2ag | "E"ed"^#"c2 "A"A2AA :| 
|: "A"A2A2 "C"[c4e4] | "A"A2A2 "G"[G4B4] | "A"A2AA cAcd | "E"edc2 "A"A2AA :| 
